brandFactory_export/2.Regular/Copa bebida bar_2Regular.svg

<?xml version="1.0" encoding="UTF-8"?>
<svg width="24px" height="24px" viewBox="0 0 24 24" version="1.1" xmlns="http://www.w3.org/2000/svg" xmlns:xlink="http://www.w3.org/1999/xlink">
    <title>2.Regular/Copa bebida bar_2Regular</title>
    <g id="Symbols" stroke="none" stroke-width="1" fill="none" fill-rule="evenodd">
        <g id="2.Regular/Copa-bebida-bar_2Regular" fill="#5CB615" fill-rule="nonzero">
            <path d="M18.5411765,8.7697479 C18.487395,8.7697479 18.4436975,8.76302521 18.3932773,8.76302521 L19.4789916,7.50252101 C19.7210084,7.24033613 19.8722689,6.8907563 19.8722689,6.50756303 C19.8722689,5.70084034 19.2268908,5.0487395 18.4268908,5.0487395 L18.410084,5.0487395 L14.9142857,5.06554622 C14.9310924,2.60840336 16.0806723,1.45882353 18.5411765,1.45882353 C20.9848739,1.45882353 22.1747899,2.65546218 22.1747899,5.11596639 C22.1747899,7.60672269 21.0184874,8.7697479 18.5411765,8.7697479 Z M11.6201681,14.3831933 L6.7394958,9.21680672 L16.0773109,9.21680672 L11.6201681,14.3831933 L11.6201681,14.3831933 Z M10.1680672,22.1579832 L11.6504202,21.4722689 L13.2571429,22.1512605 L10.1680672,22.1579832 L10.1680672,22.1579832 Z M18.4201681,6.50756303 L17.3210084,7.77478992 C17.2907563,7.77142857 17.2638655,7.75798319 17.2336134,7.75798319 L5.36134454,7.75798319 L4.23865546,6.57142857 C4.23865546,6.57478992 18.4201681,6.50756303 18.4201681,6.50756303 Z M18.5411765,0 C15.2806723,0 13.4823529,1.80168067 13.4655462,5.06890756 L7.24705882,5.09915966 L5.00168067,2.84033613 C4.67563025,2.51428571 4.23193277,2.32941176 3.76806723,2.32941176 L0.72605042,2.32941176 C0.32605042,2.32941176 0,2.65546218 0,3.05882353 C0,3.46218487 0.32605042,3.78823529 0.72605042,3.78823529 L3.76806723,3.78823529 C3.84537815,3.78823529 3.92268908,3.81848739 3.97647059,3.87226891 L5.20336134,5.1092437 L4.23529412,5.11260504 C3.65714286,5.11596639 3.13613445,5.46554622 2.90756303,6 C2.68235294,6.53445378 2.79327731,7.15294118 3.18991597,7.57647059 L10.5714286,15.3915966 C10.6689076,15.4957983 10.789916,15.5798319 10.9142857,15.6504202 L10.9142857,20.2084034 L6.54453782,22.2319328 C6.17815126,22.4033613 6.02016807,22.8369748 6.19159664,23.2033613 C6.3092437,23.4588235 6.56470588,23.6201681 6.84369748,23.6235294 L16.8403361,23.6033613 C17.1865546,23.6033613 17.4823529,23.3579832 17.5495798,23.0151261 C17.6168067,22.6756303 17.4352941,22.3361345 17.1193277,22.2016807 L12.3596639,20.1882353 L12.3596639,15.6302521 C12.4941176,15.5529412 12.6117647,15.4554622 12.712605,15.3411765 L17.2302521,10.107563 C17.6369748,10.1815126 18.0705882,10.2252101 18.5378151,10.2252101 C21.8151261,10.2252101 23.6201728,8.41008403 23.6201728,5.11260504 C23.6235294,1.81848739 21.8184874,0 18.5411765,0 Z" id="Copa-bebida-bar_2Regular"></path>
        </g>
    </g>
</svg>

<svg width="24" height="24" viewBox="0 0 24 24" xmlns="http://www.w3.org/2000/svg"><path d="M18.541 8.77c-.054 0-.097-.007-.148-.007l1.086-1.26c.242-.263.393-.612.393-.995a1.45 1.45 0 00-1.445-1.46h-.017l-3.496.018c.017-2.458 1.167-3.607 3.627-3.607 2.444 0 3.634 1.196 3.634 3.657 0 2.49-1.157 3.654-3.634 3.654zm-6.92 5.613L6.738 9.217h9.338l-4.457 5.166zm-1.453 7.775l1.482-.686 1.607.68-3.089.006zm8.252-15.65l-1.099 1.267c-.03-.004-.057-.017-.087-.017H5.36L4.24 6.571c0 .004 14.181-.063 14.181-.063zM18.541 0c-3.26 0-5.059 1.802-5.075 5.069l-6.219.03L5.002 2.84a1.745 1.745 0 00-1.234-.51H.726c-.4 0-.726.325-.726.729 0 .403.326.73.726.73h3.042c.077 0 .155.03.208.083L5.203 5.11l-.968.004c-.578.003-1.099.353-1.327.887a1.472 1.472 0 00.282 1.576l7.381 7.816c.098.104.219.188.343.258v4.558l-4.37 2.024a.73.73 0 00.3 1.392l9.996-.02a.731.731 0 00.279-1.402l-4.76-2.014V15.63a1.4 1.4 0 00.354-.289l4.517-5.233c.407.074.84.117 1.308.117 3.277 0 5.082-1.815 5.082-5.112C23.624 1.818 21.818 0 18.541 0z" fill="#5CB615" fill-rule="nonzero"/></svg>
